!!!COM: Fanny Hensel
!!!CNT: Deutsch
!!!TXO: Deutsch
!!!OTL: Neue Liebe, neues Leben
!!!LYR: Goethe
!!!OPR: 
!!!OPS: No Opus information available
!!!ONM: 
!!!ENC: Ben Fuhrman
!!!YOR: Frauen komponieren: 25 Lieder fu2r Singstimme und Klavier
!!!YOR: Mainz, B. Schott's So2hne, 1992.
!!!ODT: 1836
!!NB: Only vocal melody encoded.
!!NB: First instance of melodic material only encoded.
!!created: 2/16/10 1:00PM
!!proofed and posted: 2/16/10 1:03PM
**kern	**silbe
*clef G2	*
*k[b-e-]	*
*M4/4	*
*MM[Allegro con molto]	*
{4dd	{Herz
8ee-	mein
8ff	|
=1	=1
4ff	Herz,
4cc	was
4b-	soll
8cc	das
8dd	|
=2	=2
4dd	ge-
4a	-ben
4g	was
8a	be-
8b-	|
=3	=3
4b-	-dra2n-
4f	-get
4ee-	dich
8dd	so
8ee-	|
=4	=4
(4dd	sehr,
4cc)}	|}
{4dd	{welch'
8ee-	ein
8ff	|
=5	=5
4ff	derm-
4cc	-des
4b-	neu-
8cc	-es
8dd	|
=6	=6
4dd	Le-
4a	-ben,
4g	ich
8a	er-
8b-	|
=7	=7
4b-	-ken-
8ee-	-ne
8cc	|
(4b-	dich
8a)	|
8b-	nicht
=8	=8
4b-}	mehr.}
4r	.
{4cc	{Weg
4cc	ist
=9	=9
4dd	al-
8cc	-les,
8b-	|
4a	was
4g	du
=10	=10
4bn	lieb-
4cc	-test,
4cc	weg
4cc	wor-
=11	=11
4ee-	-um
8dd	du
8cc	|
4b-	dich
4a	be-
=12	=12
4cc#	-tru2b-
4dd}	-test,}
{4dd	{weg
4dd	dein
=13	=13
4ff	Fleiss
8een	und
8dd	|
4dd	dei-
4dd	-ne
=14	=14
(ddq	Ruh',
2ff)	|
4dd	ach,
4dd	wie
=15	=15
4ff	kamst
8een	du
8dd	|
4dd	nur
8een	da-
8cc#	|
=16	=16
4dd}	-zu?}
4r	.
{4dd	{Fes-
8ee-	-selt
8ff	|
=17	=17
4ff	dich
4cc	die
4b-	Ju-
8cc	-gend
8dd	|
=18	=18
4dd	-blu2-
4a	-te,
4g	die-
8a	-se-
8b-	|
=19	=19
4b-	lieb-
4f	-li
4ee-	-che
8dd	Ge-
8ee-	|
=20	=20
(4dd	-stalt,
4cc)}	|}
{4dd	{die
8ee-	-ser
8ff	|
=21	=21
4ff	Blick
4cc	voll
4b-	Treu'
8cc	und
8dd	|
=22	=22
4dd	Gu2-
4a	-te,
4g	mit
8a	un-
8b-	|
=23	=23
4b-	-end-
8ee-	-li-
8cc	|
(4b-	-cher
8a-)	|
8b-	Ge-
=24	=24
4b-}	-walt.}
4r	.
2r	.
=25	=25
1r	.
=26	=26
2r	.
{4dd	{Will
4dd	ich
=27	=27
4dd	rasch
(ffq	mich
8ee-)	|
8dd	|
4dd	ihr
4dd	ent-
=28	=28
4gg	-zie-
4cc	-hen,
4b-	mich
4b-	er-
=29	=29
4b-	-man-
(ddq	-nen,
8cc)	|
8b-	|
4a	ihr
4a	ent-
=30	=30
4dd	-flie-
4g}	-hen,}
{8dd	{fu2h-
8b-	|
8a	-ret
8g	|
=31	=31
4.g	mich
8g	im
8dd	Au-
8b-	|
8a	-gen-
8g	|
=32	=32
4g	-blick,
4r	.
8dd	ach,
8b-	|
8a	mein
8g	|
=33	=33
8ee-	Weg
8cc	|
8b-	zu
8a	|
4g	ihr
4a	zu-
=34	=34
(4a	-ru2ck,
4b-)}	|}
{8dd	{fu2h
8b-	|
8a	-ret
8g	|
=35	=35
4.g	mich
8g	im
8dd	Au-
8b-	|
8a	-gen-
8g	|
=36	=36
4g	-blick,
4r	.
8dd	ach,
8b-	|
8a	mein
8g	|
=37	=37
[2gg	Weg
8gg]	|
8ff	|
8ee-	zu
8dd	|
=38	=38
[2cc	ihr
8cc]	|
8b-	|
8a	zu
8g	|
=39	=39
(2f#	-ru2ck,
4g)	|
4a	zu
=40	=40
(4b-S	ihr
8cc	|
8dd	|
4dd)	|
4dd	zu-
=41	=41
4g}	-ru2ck.}
4r	.
{4g	{Und
4g	an
=42	=42
4a	die-
8b-	-sem
8cc	|
4.dd	zar-
8cc	-ten
=43	=43
4cc	Fa2d-
4b-	-chen,
4g	das
4g	sich
=44	=44
4a	nicht
8b-	zer-
8cc	|
4.dd	-rei-
8cc	-ssen
=45	=45
4b-}	la2sst,}
4r	.
{4.bn	{ha2lt
8bn	das
=46	=46
4cc	lie-
8dd	-be,
8ee-	|
4.gg	lo-
8ff	-se
=47	=47
4ff	Ma2d-
4ee-	-chen
4cc	mich
4cc	so
=48	=48
4dd	wi-
8ee-	-der
8ff	|
4.gg	Wil-
8ff	-len
=49	=49
4ee-}	fest,}
4r	.
{4ee-	{ha2lt
4ee-	das
=50	=50
2dd	lie-
2ee-	-be,
=51	=51
2dd	lo-
2ee-	-se
=52	=52
8dd	Ma2d-
8gg	|
8ff	-chen
8ee-	|
[2dd	mich
=53	=53
8dd]	|
8gg	|
8ff	so
8ee-	||
[2dd	wi-
=54	=54
8dd]	|
8gg	|
8ff	|
8ee-	|
8dd	|
8ee-	|
8dd	der
8cc	|
=55	=55
2b-	Wil-
2a	-len
=56	=56
4g}	fest;}
4r	.
{4dd	{muss
8ee-	in
8ff	|
=57	=57
4ff	ih-
4cc	-rem
4b-	Zau-
8cc	-ber-
8dd	|
=58	=58
4dd	-krei-
4a	-se
4g	le-
8a	-ben
8b-	|
=59	=59
4b-	nun
4f	auf
4ee-	ih-
8dd	-re
8ee-	|
=60	=60
4dd	Wei-
4cc}	-se,}
{8dd	ach
8ee-	|
8een	wie
8ff	|
=61	=61
(4ff	{gross,
4cc)	|
8b-	ach
8cc	|
8cc#	wie
8dd	|
=62	=62
(4dd	gross,
4a)	|
8g	Lie-
8a-	|
8an	-be,
8b-	|
=63	=63
4b-	Lie-
8ee-	-be
8cc	|
4b-	lass
8a	mich
8b-	|
=64	=64
4b-}	los,}
4r	.
{4cc	{lass
4f	mich
=65	=65
4dd	los,
4r	.
4ee-	lass
4a	mich
=66	=66
4ff	los,
4r	.
4ff	Lie-
4ff	-be,
=67	=67
8ff	Lie-
8ee-	|
8dd	-be
8cc	|
4b-	lass
4cc	mich
=68	=68
(4cc#	los,
4dd)}	|}
{4dd	{lass
4g	mich
=69	=69
4ee-	los,
4r	.
4ee-	lass
4a-	mich
=70	=70
4ff	los,
4r	.
4ff	Lie-
4ff#	-be,
=71	=71
2.gg	Lie-
4gg	-be
=72	=72
8gg	lass,
8ff	|
8ee-	oh
8dd	|
8dd	lass
8cc	|
8b-	mich
8a	|
=73	=73
4b-}	los!}
4r	.
2r	.
==	==
*-	*-
